resources/icons/light/unparent.svg

<?xml version="1.0" encoding="UTF-8" standalone="no"?>
<svg
   xmlns:dc="http://purl.org/dc/elements/1.1/"
   xmlns:cc="http://creativecommons.org/ns#"
   xmlns:rdf="http://www.w3.org/1999/02/22-rdf-syntax-ns#"
   xmlns:svg="http://www.w3.org/2000/svg"
   xmlns="http://www.w3.org/2000/svg"
   xmlns:sodipodi="http://sodipodi.sourceforge.net/DTD/sodipodi-0.dtd"
   xmlns:inkscape="http://www.inkscape.org/namespaces/inkscape"
   width="16"
   height="16"
   viewBox="0 0 16 16"
   fill="none"
   id="svg3404"
   version="1.1"
   inkscape:version="0.91 r13725"
   sodipodi:docname="unparent.svg">
  <metadata
     id="metadata3412">
    <rdf:RDF>
      <cc:Work
         rdf:about="">
        <dc:format>image/svg+xml</dc:format>
        <dc:type
           rdf:resource="http://purl.org/dc/dcmitype/StillImage" />
        <dc:title></dc:title>
      </cc:Work>
    </rdf:RDF>
  </metadata>
  <defs
     id="defs3410" />
  <sodipodi:namedview
     pagecolor="#ffffff"
     bordercolor="#666666"
     borderopacity="1"
     objecttolerance="10"
     gridtolerance="10"
     guidetolerance="10"
     inkscape:pageopacity="0"
     inkscape:pageshadow="2"
     inkscape:window-width="1920"
     inkscape:window-height="961"
     id="namedview3408"
     showgrid="false"
     inkscape:zoom="49.3125"
     inkscape:cx="6.8846641"
     inkscape:cy="8"
     inkscape:window-x="0"
     inkscape:window-y="24"
     inkscape:window-maximized="1"
     inkscape:current-layer="svg3404" />
  <g
     id="g3414"
     transform="matrix(0,-1,1,0,-0.006495,16.006505)">
    <path
       id="path3406"
       d="m 8.00001,1 -0.542,0 -3.905,3.905 1.061,1.06 2.637,-2.61 0,6.177 0.749,0 0.749,0 0,-6.177 2.63699,2.61 1.061,-1.06 L 8.54201,1 8.00001,1 Z m 1.956,12.013 c 0,1.1046 -0.89543,2 -2,2 -1.10457,0 -2,-0.8954 -2,-2 0,-1.1046 0.89543,-2 2,-2 1.10457,0 2,0.8954 2,2 z"
       inkscape:connector-curvature="0"
       style="clip-rule:evenodd;fill:#424242;fill-rule:evenodd" />
  </g>
</svg>

<svg width="16" height="16" viewBox="0 0 16 16" fill="none" xmlns="http://www.w3.org/2000/svg">
<path fill-rule="evenodd" clip-rule="evenodd" d="M7.99998 1H7.45798L3.55298 4.905L4.61398 5.965L7.25098 3.355V9.532H7.99998H8.74898V3.355L11.386 5.965L12.447 4.905L8.54198 1H7.99998ZM9.95598 13.013C9.95598 14.1176 9.06055 15.013 7.95598 15.013C6.85141 15.013 5.95598 14.1176 5.95598 13.013C5.95598 11.9084 6.85141 11.013 7.95598 11.013C9.06055 11.013 9.95598 11.9084 9.95598 13.013Z" fill="#424242"/>
</svg>
